logos/tv.ocscity.svg

<?xml version="1.0" encoding="UTF-8" standalone="no"?>
<!-- Created with Inkscape (http://www.inkscape.org/) -->

<svg
   xmlns:dc="http://purl.org/dc/elements/1.1/"
   xmlns:cc="http://creativecommons.org/ns#"
   xmlns:rdf="http://www.w3.org/1999/02/22-rdf-syntax-ns#"
   xmlns:svg="http://www.w3.org/2000/svg"
   xmlns="http://www.w3.org/2000/svg"
   xmlns:inkscape="http://www.inkscape.org/namespaces/inkscape"
   version="1.1"
   width="354pt"
   height="222pt"
   viewBox="0 0 354 222"
   id="svg2">
  <metadata
     id="metadata23">
    <rdf:RDF>
      <cc:Work
         rdf:about="">
        <dc:format>image/svg+xml</dc:format>
        <dc:type
           rdf:resource="http://purl.org/dc/dcmitype/StillImage" />
      </cc:Work>
    </rdf:RDF>
  </metadata>
  <defs
     id="defs21" />
  <g
     id="#ffffffff" />
  <g
     id="#ee7f01ff">
    <path
       d="m 53.5,6.76 c 15.12,-2.32 31.27,0.29 44.28,8.54 11.12,7.02 18.8,18.6 22.65,31.04 5.67,18.43 3.46,39.22 -6.25,55.91 -7.69,13.07 -21.53,21.8 -36.22,24.82 -16.64,3.64 -34.92,0.77 -49.02,-9.01 C 17.18,109.85 9.23,96.8 6.38,82.82 3.6,69.34 4.48,55.03 9.14,42.06 16.06,23.38 33.7,9.24 53.5,6.76 m 5.77,29.43 C 52,37.96 46.13,43.93 43.9,50.99 39.85,62.98 40.23,76.66 45.91,88.07 49.69,94.74 57.3,99.33 65.05,98.88 72.36,98.58 79.09,93.95 82.57,87.6 85.81,81.63 86.78,74.69 87.04,67.99 87.05,59.98 85.69,51.58 81.32,44.73 76.49,37.94 67.47,34.04 59.27,36.19 z"
       inkscape:connector-curvature="0"
       id="path6"
       style="fill:#ee7f01" />
    <path
       d="m 167.83,8.69 c 10.04,-3.16 20.76,-3.03 31.14,-2.06 11.05,1.15 22.37,4.97 30.08,13.31 7.33,7.47 9.85,18.06 11.51,28.05 -11.74,0.06 -23.48,0.12 -35.22,0.06 -3.02,-11.52 -17.75,-15.43 -27.62,-10.42 -6.39,2.84 -9.49,9.61 -11.33,15.94 -3.34,11.54 -2.26,24.32 2.98,35.12 5.3,10.51 20.62,13.55 29.88,6.56 3.69,-3.05 4.79,-7.95 6.17,-12.3 11.86,0.01 23.72,-0.12 35.58,-0.08 0.13,12.03 -4.9,24.09 -13.94,32.09 -10.8,9.72 -25.7,13.81 -40.01,13.53 -10.19,-0.26 -20.62,-1.95 -29.65,-6.92 -12.37,-6.82 -22.05,-18.55 -25.98,-32.15 -5.4,-18.39 -4.45,-39.14 4.94,-56.1 6.48,-12.13 18.39,-20.81 31.47,-24.63 z"
       inkscape:connector-curvature="0"
       id="path8"
       style="fill:#ee7f01" />
    <path
       d="m 275.21,9.19 c 16.85,-5.62 36.2,-4.08 51.54,5.06 11.41,7.08 17.76,20.6 17.87,33.81 -11.42,0.01 -22.84,0.02 -34.26,0 -0.48,-4.68 -0.76,-10.43 -5.16,-13.26 -5.46,-2.96 -12.52,-3.53 -18.14,-0.66 -2.11,1.14 -4.5,3.08 -4.05,5.79 0.71,3.14 3.5,5.39 6.31,6.66 13.24,5.18 27.76,6.29 40.69,12.39 6.04,2.87 11.85,6.88 15.29,12.76 6.92,11.7 5.52,27.29 -2.28,38.22 -5.97,8.38 -15.6,13.31 -25.34,15.89 -13.34,3.27 -27.66,3.84 -40.85,-0.44 -9.77,-3.13 -19.14,-8.63 -25.33,-16.98 -5.3,-7.36 -7.4,-16.5 -8.02,-25.42 12.22,-0.03 24.44,-0.21 36.66,-0.14 0.55,5.84 0.61,13.24 6.32,16.61 6.83,3.26 15.33,3.68 22.15,0.14 4.46,-2.29 6.4,-9.91 1.66,-12.89 -15.81,-8.58 -35.08,-8.64 -50.12,-18.9 -5.27,-3.28 -8.94,-8.7 -10.59,-14.64 -3.33,-11.8 0.25,-25.13 8.59,-34.03 4.59,-4.89 10.8,-7.83 17.06,-9.97 z"
       inkscape:connector-curvature="0"
       id="path10"
       style="fill:#ee7f01" />
  </g>
  <g
     id="#000000ff">
    <path
       d="m 113.47,147.5 c 5.45,-6 13.73,-8.15 21.57,-8.54 6.67,0.42 13.72,1.7 18.95,6.2 5.29,4.32 7.85,11.17 8.38,17.83 -5.83,0.02 -11.66,0.01 -17.49,0.01 -0.3,-3.91 -2.17,-8.1 -6.04,-9.6 -3.29,-0.76 -7.27,-0.81 -9.9,1.64 -1.74,1.42 -2.56,3.57 -3.58,5.51 -1.9,5.67 -1.44,11.75 -1.11,17.62 0.79,4.91 2.69,10.81 7.89,12.58 3.23,0.53 7.16,0.64 9.54,-2.03 2.53,-2.17 3.37,-5.51 3.42,-8.72 5.98,-0.01 11.96,0.01 17.94,-0.01 -0.69,8.09 -4.22,16.37 -11.48,20.63 -11.33,6.52 -27.16,5.84 -36.99,-3.19 -7.19,-6.8 -9.27,-17.04 -9.61,-26.53 0.49,-8.36 2.29,-17.29 8.51,-23.4 z"
       inkscape:connector-curvature="0"
       id="path13"
       style="fill:#000000" />
    <path
       d="m 166,141 c 5.67,0 11.33,0 17,0 0,4.33 0,8.67 0,13 -5.67,0 -11.33,0 -17,0 0,-4.33 0,-8.67 0,-13 z"
       inkscape:connector-curvature="0"
       id="path15"
       style="fill:#000000" />
    <path
       d="m 189,144 c 5.67,0 11.33,0 17,0 0,4.67 0,9.33 0,14 7.99,0.06 15.99,-0.1 23.97,0.06 0.22,0.25 0.66,0.75 0.88,1 1.42,10.15 4.86,20.03 5.36,30.29 1.59,-2.44 1.41,-5.41 1.83,-8.17 1.66,-7.73 3.58,-15.41 5.04,-23.18 5.89,0 11.77,0 17.66,0 -3.76,12.95 -7.76,25.82 -11.55,38.76 -1.81,5.84 -3.44,12.07 -7.74,16.65 -3.28,3.26 -7.99,4.11 -12.41,4.58 -4.71,0.34 -9.33,-0.97 -14.04,-0.82 0,-4.39 0,-8.78 0,-13.17 3.52,-0.25 7.05,0.16 10.57,-0.23 0.23,-0.74 0.68,-2.2 0.91,-2.93 -3.13,-10.76 -7.02,-21.28 -10.68,-31.86 -3.27,0.03 -6.53,0.02 -9.8,0.02 0.27,7.23 -0.57,14.54 0.47,21.71 2.17,0.26 4.35,0.32 6.53,0.22 0,4.02 0,8.04 0,12.06 -5.67,0.01 -11.4,2.16 -16.92,-0.12 -5.12,-1.46 -6.73,-7.15 -7.02,-11.87 -0.16,-7.33 -0.01,-14.67 -0.06,-22 -2,0 -4,0 -6,0 0,11.33 0,22.67 0,34 -5.67,0 -11.33,0 -17,0 0,-15 0,-30 0,-45 7.67,0 15.33,0 23,0 0,-4.67 0,-9.33 0,-14 z"
       inkscape:connector-curvature="0"
       id="path17"
       style="fill:#000000" />
  </g>
</svg>

<?xml version="1.0" encoding="UTF-8" ?>
<!DOCTYPE svg PUBLIC "-//W3C//DTD SVG 1.1//EN" "http://www.w3.org/Graphics/SVG/1.1/DTD/svg11.dtd">
<svg width="354pt" height="222pt" viewBox="0 0 354 222" version="1.1" xmlns="http://www.w3.org/2000/svg">
<g id="#ffffffff">
</g>
<g id="#ee7f01ff">
<path fill="#ee7f01" opacity="1.00" d=" M 53.50 6.76 C 68.62 4.44 84.77 7.05 97.78 15.30 C 108.90 22.32 116.58 33.90 120.43 46.34 C 126.10 64.77 123.89 85.56 114.18 102.25 C 106.49 115.32 92.65 124.05 77.96 127.07 C 61.32 130.71 43.04 127.84 28.94 118.06 C 17.18 109.85 9.23 96.80 6.38 82.82 C 3.60 69.34 4.48 55.03 9.14 42.06 C 16.06 23.38 33.70 9.24 53.50 6.76 M 59.27 36.19 C 52.00 37.96 46.13 43.93 43.90 50.99 C 39.85 62.98 40.23 76.66 45.91 88.07 C 49.69 94.74 57.30 99.33 65.05 98.88 C 72.36 98.58 79.09 93.95 82.57 87.60 C 85.81 81.63 86.78 74.69 87.04 67.99 C 87.05 59.98 85.69 51.58 81.32 44.73 C 76.49 37.94 67.47 34.04 59.27 36.19 Z" />
<path fill="#ee7f01" opacity="1.00" d=" M 167.83 8.69 C 177.87 5.53 188.59 5.66 198.97 6.63 C 210.02 7.78 221.34 11.60 229.05 19.94 C 236.38 27.41 238.90 38.00 240.56 47.99 C 228.82 48.05 217.08 48.11 205.34 48.05 C 202.32 36.53 187.59 32.62 177.72 37.63 C 171.33 40.47 168.23 47.24 166.39 53.57 C 163.05 65.11 164.13 77.89 169.37 88.69 C 174.67 99.20 189.99 102.24 199.25 95.25 C 202.94 92.20 204.04 87.30 205.42 82.95 C 217.28 82.96 229.14 82.83 241.00 82.87 C 241.13 94.90 236.10 106.96 227.06 114.96 C 216.26 124.68 201.36 128.77 187.05 128.49 C 176.86 128.23 166.43 126.54 157.40 121.57 C 145.03 114.75 135.35 103.02 131.42 89.42 C 126.02 71.03 126.97 50.28 136.36 33.32 C 142.84 21.19 154.75 12.51 167.83 8.69 Z" />
<path fill="#ee7f01" opacity="1.00" d=" M 275.21 9.19 C 292.06 3.57 311.41 5.11 326.75 14.25 C 338.16 21.33 344.51 34.85 344.62 48.06 C 333.20 48.07 321.78 48.08 310.36 48.06 C 309.88 43.38 309.60 37.63 305.20 34.80 C 299.74 31.84 292.68 31.27 287.06 34.14 C 284.95 35.28 282.56 37.22 283.01 39.93 C 283.72 43.07 286.51 45.32 289.32 46.59 C 302.56 51.77 317.08 52.88 330.01 58.98 C 336.05 61.85 341.86 65.86 345.30 71.74 C 352.22 83.44 350.82 99.03 343.02 109.96 C 337.05 118.34 327.42 123.27 317.68 125.85 C 304.34 129.12 290.02 129.69 276.83 125.41 C 267.06 122.28 257.69 116.78 251.50 108.43 C 246.20 101.07 244.10 91.93 243.48 83.01 C 255.70 82.98 267.92 82.80 280.14 82.87 C 280.69 88.71 280.75 96.11 286.46 99.48 C 293.29 102.74 301.79 103.16 308.61 99.62 C 313.07 97.33 315.01 89.71 310.27 86.73 C 294.46 78.15 275.19 78.09 260.15 67.83 C 254.88 64.55 251.21 59.13 249.56 53.19 C 246.23 41.39 249.81 28.06 258.15 19.16 C 262.74 14.27 268.95 11.33 275.21 9.19 Z" />
</g>
<g id="#000000ff">
<path fill="#000000" opacity="1.00" d=" M 113.47 147.50 C 118.92 141.50 127.20 139.35 135.04 138.96 C 141.71 139.38 148.76 140.66 153.99 145.16 C 159.28 149.48 161.84 156.33 162.37 162.99 C 156.54 163.01 150.71 163.00 144.88 163.00 C 144.58 159.09 142.71 154.90 138.84 153.40 C 135.55 152.64 131.57 152.59 128.94 155.04 C 127.20 156.46 126.38 158.61 125.36 160.55 C 123.46 166.22 123.92 172.30 124.25 178.17 C 125.04 183.08 126.94 188.98 132.14 190.75 C 135.37 191.28 139.30 191.39 141.68 188.72 C 144.21 186.55 145.05 183.21 145.10 180.00 C 151.08 179.99 157.06 180.01 163.04 179.99 C 162.35 188.08 158.82 196.36 151.56 200.62 C 140.23 207.14 124.40 206.46 114.57 197.43 C 107.38 190.63 105.30 180.39 104.96 170.90 C 105.45 162.54 107.25 153.61 113.47 147.50 Z" />
<path fill="#000000" opacity="1.00" d=" M 166.00 141.00 C 171.67 141.00 177.33 141.00 183.00 141.00 C 183.00 145.33 183.00 149.67 183.00 154.00 C 177.33 154.00 171.67 154.00 166.00 154.00 C 166.00 149.67 166.00 145.33 166.00 141.00 Z" />
<path fill="#000000" opacity="1.00" d=" M 189.00 144.00 C 194.67 144.00 200.33 144.00 206.00 144.00 C 206.00 148.67 206.00 153.33 206.00 158.00 C 213.99 158.06 221.99 157.90 229.97 158.06 C 230.19 158.31 230.63 158.81 230.85 159.06 C 232.27 169.21 235.71 179.09 236.21 189.35 C 237.80 186.91 237.62 183.94 238.04 181.18 C 239.70 173.45 241.62 165.77 243.08 158.00 C 248.97 158.00 254.85 158.00 260.74 158.00 C 256.98 170.95 252.98 183.82 249.19 196.76 C 247.38 202.60 245.75 208.83 241.45 213.41 C 238.17 216.67 233.46 217.52 229.04 217.99 C 224.33 218.33 219.71 217.02 215.00 217.17 C 215.00 212.78 215.00 208.39 215.00 204.00 C 218.52 203.75 222.05 204.16 225.57 203.77 C 225.80 203.03 226.25 201.57 226.48 200.84 C 223.35 190.08 219.46 179.56 215.80 168.98 C 212.53 169.01 209.27 169.00 206.00 169.00 C 206.27 176.23 205.43 183.54 206.47 190.71 C 208.64 190.97 210.82 191.03 213.00 190.93 C 213.00 194.95 213.00 198.97 213.00 202.99 C 207.33 203.00 201.60 205.15 196.08 202.87 C 190.96 201.41 189.35 195.72 189.06 191.00 C 188.90 183.67 189.05 176.33 189.00 169.00 C 187.00 169.00 185.00 169.00 183.00 169.00 C 183.00 180.33 183.00 191.67 183.00 203.00 C 177.33 203.00 171.67 203.00 166.00 203.00 C 166.00 188.00 166.00 173.00 166.00 158.00 C 173.67 158.00 181.33 158.00 189.00 158.00 C 189.00 153.33 189.00 148.67 189.00 144.00 Z" />
</g>
</svg>
